!!!COM: Anonymous
!!!CDT: [?]
!!!OTL: Salve salus mea Deus
!!!TXO: Latin
!!!ODT: 
!!!GTL: Hymnbook E
!!!ARL: Opactwo św. Wojciecha, Staniątki 
!!!voices:	3
**kern	**kern	**text	**kern	**text
*staff3	*staff2	*staff2	*staff1	*staff1
*I"Basso	*I"Canto II	*	*I"Canto I	*
=1-	=1-	=1-	=1-	=1-
*clefF4	*clefG2	*	*clefG2	*
*k[b-]	*k[b-]	*	*k[b-]	*
*met(c|)	*met(c|)	*	*met(c|)	*
*M2/2	*M2/2	*	*M2/2	*
2r	2r	.	2r	.
4C	8ccL	Sal-	8ee-L	Sal-
.	8b-J	.	8ddJ	.
4C	8ccL	-ve	8ee-L	-ve
.	8ddJ	.	8ffJ	.
=2	=2	=2	=2	=2
4G	8bnL	Sa-	8ddL	Sa-
.	8aJ	.	8ccJ	.
4G	4g	-lus	4bni	-lus
4A-	4cc	me-	4ee-	me-
4F	8ccL	-a	8ee-L	-a
.	16ddL	.	16ffL	.
.	16ccJJ	.	16ee-JJ	.
=3	=3	=3	=3	=3
4G	4cc	De-	2dd	De-
4GG	4bn	.	.	.
2C	2cc	-us	2cc	-us
=4	=4	=4	=4	=4
4.E-	4.g	Ie-	4.b-	Ie-
8E-	8e-	-su	8g	-su
4BB-	4d	dul-	4f	dul-
4BB-	4d	-cis	4f	-cis
=5	=5	=5	=5	=5
4E-i	8gL	a-	8b-L	a-
.	16aL	.	16ccL	.
.	16b-JJ	.	16ddJJ	.
8GL	8ccL	-mor	4ee-	-mor
8AJ	8ee-J	.	.	.
4B-	4ee-	me-	2ff	me-
4BB-	4dd	.	.	.
=6	=6	=6	=6	=6
1E-	1ee-	-us	1ee-	-us
=7:|!|:	=7:|!|:	=7:|!|:	=7:|!|:	=7:|!|:
8cL	8cc	Sal-	8.ee-	Sal-
8c	8cc	-ve	.	.
.	.	.	16ee-	-ve
8Bn	8bn	Ie-	8dd	Ie-
8GJ	8b	-su	8dd	-su
4A-	4ee-	sal-	4cc	sal-
8GL	8dd	-ve	8bn	-ve
8FJ	8b	a-	8dd	a-
=8	=8	=8	=8	=8
8E-L	8.cc	-mo-	8.ee-	-mo-
8C	.	.	.	.
.	16cc	-ris	16ee-	-ris
8E-	8cc	do-	8ee-	do-
8FJ	8cc	-mi-	8ee-	-mi-
4.G	4.cc	-ci-	4.dd	-ci-
8GG	8bn	-li-	8dd	-li-
=9	=9	=9	=9	=9
1C	1cc	-um.	1cc	-um.
==:|!	==:|!	==:|!	==:|!	==:|!
*-	*-	*-	*-	*-
!!!GTL: Hymnbook E
!!!EFL: 79/117
!!!YEM: Creative Commons CC/BY/NC/SA 4.0
!!!ENC: Marcin Konik
!!!END: 
!!!EED: Marcin Konik
!!!EEV: 
!!!ONB: Translated from MusicXML and edited by Marcin Konik
!!!CharacterEncoding: utf-8
!!!RDF**kern: l=long note in original notation
!!!RDF**kern: i=editorial accidental
!!muse2ps: z14jc180F
